docs/img/svg/footer__contacts-viber.svg

<svg width="24" height="24" viewBox="0 0 24 24" fill="none" xmlns="http://www.w3.org/2000/svg">
<path d="M15.5922 5.54954C13.2086 5.09612 10.7914 5.09612 8.4074 5.54954C7.36467 5.78178 6.05285 7.03884 5.79638 8.04996C5.36981 10.0064 5.36981 11.9897 5.79638 13.9461C6.05285 14.9572 7.36467 16.2143 8.4074 16.4465C8.40766 16.4465 8.40792 16.4466 8.40819 16.4467C8.45463 16.4558 8.4885 16.496 8.4885 16.5433V19.4094C8.4885 19.5526 8.66334 19.6232 8.76287 19.5194L10.1242 18.1223C10.1242 18.1223 11.209 17.0087 11.4041 16.8084C11.4231 16.7889 11.4495 16.7783 11.4767 16.779C12.8512 16.8171 14.2271 16.7061 15.5922 16.4466C16.6349 16.2143 17.9472 14.9572 18.2032 13.9461C18.6303 11.9897 18.6303 10.0064 18.2032 8.05002C17.9472 7.03884 16.6354 5.78178 15.5922 5.54954ZM15.6285 14.092C15.42 14.5348 15.1165 14.9032 14.6788 15.1383C14.5553 15.2047 14.4077 15.2261 14.2683 15.269C14.108 15.2204 13.9552 15.1876 13.8133 15.1288C12.3432 14.5188 10.9902 13.7319 9.91844 12.5257C9.30898 11.8398 8.83191 11.0654 8.42872 10.2458C8.23751 9.85719 8.07636 9.45332 7.9121 9.05208C7.76228 8.68618 7.98293 8.30817 8.21523 8.03248C8.4332 7.77375 8.71368 7.57574 9.01744 7.42981C9.25453 7.3159 9.4884 7.38157 9.66156 7.58253C10.0359 8.017 10.3797 8.47369 10.6581 8.9773C10.8293 9.28706 10.7824 9.66571 10.4721 9.87652C10.3967 9.92776 10.3279 9.9879 10.2577 10.0458C10.1961 10.0965 10.1381 10.1477 10.0959 10.2164C10.0187 10.342 10.015 10.4902 10.0647 10.6269C10.4473 11.6784 11.0923 12.4961 12.1507 12.9365C12.3201 13.007 12.4902 13.089 12.6853 13.0663C13.0121 13.0281 13.1179 12.6697 13.3468 12.4824C13.5707 12.2994 13.8567 12.297 14.0978 12.4496C14.3389 12.6022 14.5727 12.766 14.805 12.9316C15.0331 13.0941 15.2602 13.2531 15.4706 13.4384C15.6727 13.6165 15.7424 13.8502 15.6285 14.092ZM13.7303 10.6653C13.6391 10.6669 13.6749 10.6651 13.7096 10.6641C13.5625 10.659 13.4825 10.5724 13.4667 10.4316C13.4552 10.3288 13.4461 10.2246 13.4216 10.1245C13.3732 9.92744 13.2685 9.74481 13.1027 9.62405C13.0245 9.56702 12.9358 9.52541 12.8429 9.49866C12.7249 9.46459 12.6023 9.47396 12.4846 9.4451C12.3567 9.41382 12.286 9.31023 12.3061 9.19027C12.3243 9.0811 12.4306 8.99589 12.5498 9.00453C13.2954 9.05835 13.8282 9.44379 13.9043 10.3215C13.9096 10.3834 13.916 10.4489 13.9022 10.5081C13.8799 10.6044 13.8111 10.6546 13.7415 10.6637C13.7472 10.6638 13.7461 10.6642 13.7303 10.6653ZM13.2667 8.65785C13.038 8.54584 12.7906 8.47622 12.5398 8.43472C12.4302 8.4166 12.3194 8.4056 12.2093 8.39027C12.0759 8.37173 12.0047 8.28668 12.0109 8.15518C12.0168 8.03195 12.1069 7.94332 12.2412 7.95091C12.6825 7.97597 13.1087 8.07135 13.5011 8.2791C14.2989 8.70161 14.7547 9.36853 14.8877 10.2591C14.8937 10.2994 14.9034 10.3394 14.9064 10.3799C14.914 10.4798 14.9187 10.5799 14.9264 10.7117C14.9232 10.7358 14.9216 10.7922 14.9075 10.8454C14.8565 11.0385 14.5638 11.0626 14.4964 10.8678C14.4764 10.81 14.4734 10.7442 14.4733 10.6819C14.4727 10.2746 14.3841 9.86777 14.1787 9.51341C13.9676 9.1493 13.645 8.84312 13.2667 8.65785ZM15.732 11.4101C15.5778 11.4119 15.5085 11.2829 15.4985 11.1447C15.4787 10.871 15.465 10.5962 15.4272 10.3248C15.2282 8.89236 14.0859 7.70724 12.6601 7.45293C12.4456 7.41464 12.2259 7.40458 12.0086 7.38178C11.8712 7.36735 11.6913 7.35903 11.6608 7.18825C11.6353 7.04506 11.7562 6.93104 11.8925 6.92372C11.9296 6.92172 11.9669 6.92341 12.0041 6.92356C13.8507 6.97533 12.1168 6.92757 12.009 6.92383C13.9298 6.97981 15.5067 8.2553 15.8449 10.1547C15.9026 10.4787 15.9231 10.8099 15.9488 11.1386C15.9595 11.2769 15.8812 11.4083 15.732 11.4101Z" fill="white"/>
<path d="M3.5 0C1.567 0 0 1.567 0 3.5V20.5C0 22.433 1.567 24 3.5 24H20.5C22.433 24 24 22.433 24 20.5V3.5C24 1.567 22.433 0 20.5 0H3.5ZM19.5903 14.26L19.5856 14.279C19.2022 15.8289 17.4738 17.492 15.8865 17.8379L15.8686 17.8416C14.5852 18.0865 13.2924 18.2087 12 18.2087C11.6196 18.2087 11.2393 18.1968 10.8591 18.1756L9.10621 19.9976C8.67227 20.4495 7.90919 20.1419 7.90919 19.5158V17.7857C6.38119 17.3493 4.78151 15.7627 4.41397 14.279L4.40976 14.26C3.9358 12.0956 3.9358 9.90058 4.40976 7.73614L4.41397 7.71718C4.79788 6.16732 6.52627 4.50424 8.113 4.15824L8.13143 4.15456C10.6982 3.66479 13.3013 3.66479 15.8686 4.15456L15.8865 4.15824C17.4738 4.50424 19.2022 6.16732 19.5856 7.71718L19.5903 7.73614C20.0643 9.90063 20.0643 12.0956 19.5903 14.26Z" fill="white"/>
</svg>

<svg width="24" height="24" fill="none" xmlns="http://www.w3.org/2000/svg"><path d="M15.592 5.55a19.145 19.145 0 00-7.185 0c-1.042.232-2.354 1.489-2.61 2.5a13.743 13.743 0 000 5.896c.256 1.011 1.568 2.268 2.61 2.5h.001c.047.01.08.05.08.097v2.866a.16.16 0 00.275.11l1.361-1.397 1.28-1.314a.098.098 0 01.073-.029c1.374.038 2.75-.073 4.115-.332 1.043-.233 2.355-1.49 2.611-2.5.427-1.957.427-3.94 0-5.897-.256-1.011-1.568-2.268-2.61-2.5zm.037 8.542c-.209.443-.512.811-.95 1.046-.124.067-.271.088-.41.131-.161-.049-.314-.081-.456-.14-1.47-.61-2.823-1.397-3.895-2.603-.609-.686-1.086-1.46-1.49-2.28-.19-.389-.352-.793-.516-1.194-.15-.366.07-.744.303-1.02.218-.258.499-.456.802-.602.238-.114.471-.048.645.153.374.434.718.89.996 1.394.171.31.124.689-.186.9-.075.05-.144.11-.214.169a.701.701 0 00-.162.17.467.467 0 00-.031.41c.382 1.052 1.027 1.87 2.086 2.31.17.071.34.153.534.13.327-.038.433-.396.662-.584a.624.624 0 01.75-.032c.242.152.476.316.708.482.228.162.455.321.666.506.202.178.271.412.158.654zm-1.899-3.427a.287.287 0 01-.02 0c-.148-.006-.228-.093-.243-.233-.012-.103-.02-.207-.045-.308a.865.865 0 00-.32-.5.83.83 0 00-.26-.125c-.117-.034-.24-.025-.357-.054-.128-.031-.199-.135-.179-.255a.231.231 0 01.244-.185c.745.053 1.278.439 1.354 1.316.006.062.012.128-.002.187a.191.191 0 01-.172.157zm-.463-2.007a2.622 2.622 0 00-.727-.223c-.11-.018-.22-.03-.33-.045-.134-.018-.205-.103-.2-.235.007-.123.097-.212.231-.204.441.025.868.12 1.26.328.798.423 1.254 1.09 1.387 1.98.006.04.015.08.018.12.008.1.013.2.02.333-.003.024-.004.08-.018.133-.051.194-.344.218-.412.023a.58.58 0 01-.023-.186c0-.407-.089-.814-.294-1.169a2.175 2.175 0 00-.912-.855zm2.465 2.752c-.154.002-.223-.127-.233-.265-.02-.274-.034-.549-.072-.82a3.436 3.436 0 00-2.767-2.872c-.214-.038-.434-.048-.651-.071-.138-.015-.318-.023-.348-.194-.026-.143.095-.257.232-.264.037-.002.074 0 .111 0 1.847.051.113.004.005 0 1.92.056 3.498 1.331 3.836 3.23.058.325.078.656.104.985.01.138-.068.27-.217.271z" fill="#fff"/><path d="M3.5 0A3.5 3.5 0 000 3.5v17A3.5 3.5 0 003.5 24h17a3.5 3.5 0 003.5-3.5v-17A3.5 3.5 0 0020.5 0h-17zm16.09 14.26l-.004.019c-.384 1.55-2.112 3.213-3.7 3.559l-.017.004a20.62 20.62 0 01-5.01.334l-1.753 1.822a.695.695 0 01-1.197-.482v-1.73c-1.528-.437-3.127-2.023-3.495-3.507l-.004-.019a15.144 15.144 0 010-6.524l.004-.019c.384-1.55 2.112-3.213 3.699-3.559l.018-.003c2.567-.49 5.17-.49 7.738 0l.018.003c1.587.346 3.315 2.01 3.699 3.56l.004.018c.474 2.165.474 4.36 0 6.524z" fill="#fff"/></svg>
